assets/1. P-Z/Rainbow flag/Color/Rainbow.Flag-color.svg

<svg width="100%" height="100%" viewBox="0 0 32 32" fill="none" xmlns="http://www.w3.org/2000/svg">
<rect x="2.25222" y="6.04297" width="27.875" height="19.9141" rx="0.6" fill="#F13770"/>
<rect x="2.25222" y="6.04297" width="27.875" height="19.9141" rx="0.6" fill="#F13770"/>
<path d="M2.25222 12.6875V9.34375H30.1272V12.6875H2.25222Z" fill="#FF5C41"/>
<path d="M2.25222 16V12.6562H30.1272V16H2.25222Z" fill="#FCA34D"/>
<path d="M2.25222 19.3125V15.9688H30.1272V19.3125H2.25222Z" fill="#43D195"/>
<path d="M2.25222 22.6562V19.3125H30.1272V22.6562H2.25222Z" fill="#3F8DF1"/>
<path d="M2.25222 22.6562V25.357C2.25222 25.6884 2.52085 25.957 2.85222 25.957H29.5272C29.8586 25.957 30.1272 25.6884 30.1272 25.357V22.6562H2.25222Z" fill="#6D549F"/>
<rect x="2.25222" y="6.04297" width="27.875" height="19.9141" rx="0.6" fill="url(#paint0_linear_4_7858)" fill-opacity="0.25"/>
<rect x="2.25222" y="6.04297" width="27.875" height="19.9141" rx="0.6" fill="url(#paint1_linear_4_7858)" fill-opacity="0.5"/>
<rect x="2.25222" y="6.04297" width="27.875" height="19.9141" rx="0.6" fill="url(#paint2_linear_4_7858)" fill-opacity="0.5"/>
<rect x="2.25222" y="6.04297" width="27.875" height="19.9141" rx="0.6" fill="url(#paint3_linear_4_7858)"/>
<defs>
<linearGradient id="paint0_linear_4_7858" x1="2.25222" y1="17.8125" x2="3.22097" y2="17.8125" gradientUnits="userSpaceOnUse">
<stop stop-color="#3A3A3A"/>
<stop offset="1" stop-color="#3A3A3A" stop-opacity="0"/>
</linearGradient>
<linearGradient id="paint1_linear_4_7858" x1="30.1272" y1="19.332" x2="29.1585" y2="19.332" gradientUnits="userSpaceOnUse">
<stop stop-color="#FBF2FF"/>
<stop offset="1" stop-color="#FBF2FF" stop-opacity="0"/>
</linearGradient>
<linearGradient id="paint2_linear_4_7858" x1="25.0647" y1="6.04297" x2="25.0647" y2="6.75391" gradientUnits="userSpaceOnUse">
<stop stop-color="#FBF2FF"/>
<stop offset="1" stop-color="#FBF2FF" stop-opacity="0"/>
</linearGradient>
<linearGradient id="paint3_linear_4_7858" x1="8.75222" y1="26.0039" x2="8.75222" y2="24.9375" gradientUnits="userSpaceOnUse">
<stop offset="0.0149314" stop-color="#693CA6"/>
<stop offset="1" stop-color="#693CA6" stop-opacity="0"/>
</linearGradient>
</defs>
</svg>

<svg width="100%" height="100%" viewBox="0 0 32 32" xmlns="http://www.w3.org/2000/svg"><rect width="27.875" height="19.914" x="2.252" y="6.043" fill="#F13770" rx=".6"/><rect width="27.875" height="19.914" x="2.252" y="6.043" fill="#F13770" rx=".6"/><path fill="#FF5C41" d="M2.252 12.688V9.344h27.875v3.344z"/><path fill="#FCA34D" d="M2.252 16v-3.344h27.875V16z"/><path fill="#43D195" d="M2.252 19.313v-3.344h27.875v3.344z"/><path fill="#3F8DF1" d="M2.252 22.656v-3.343h27.875v3.343z"/><path fill="#6D549F" d="M2.252 22.656v2.701a.6.6 0 0 0 .6.6h26.675a.6.6 0 0 0 .6-.6v-2.7z"/><rect width="27.875" height="19.914" x="2.252" y="6.043" fill="url(#a)" fill-opacity=".25" rx=".6"/><rect width="27.875" height="19.914" x="2.252" y="6.043" fill="url(#b)" fill-opacity=".5" rx=".6"/><rect width="27.875" height="19.914" x="2.252" y="6.043" fill="url(#c)" fill-opacity=".5" rx=".6"/><rect width="27.875" height="19.914" x="2.252" y="6.043" fill="url(#d)" rx=".6"/><defs><linearGradient id="a" x1="2.252" x2="3.221" y1="17.813" y2="17.813" gradientUnits="userSpaceOnUse"><stop stop-color="#3A3A3A"/><stop offset="1" stop-color="#3A3A3A" stop-opacity="0"/></linearGradient><linearGradient id="b" x1="30.127" x2="29.159" y1="19.332" y2="19.332" gradientUnits="userSpaceOnUse"><stop stop-color="#FBF2FF"/><stop offset="1" stop-color="#FBF2FF" stop-opacity="0"/></linearGradient><linearGradient id="c" x1="25.065" x2="25.065" y1="6.043" y2="6.754" gradientUnits="userSpaceOnUse"><stop stop-color="#FBF2FF"/><stop offset="1" stop-color="#FBF2FF" stop-opacity="0"/></linearGradient><linearGradient id="d" x1="8.752" x2="8.752" y1="26.004" y2="24.938" gradientUnits="userSpaceOnUse"><stop offset=".015" stop-color="#693CA6"/><stop offset="1" stop-color="#693CA6" stop-opacity="0"/></linearGradient></defs></svg>
